img/contacts/phone.svg

<svg viewBox="0 0 16 31" fill="none" xmlns="http://www.w3.org/2000/svg">
<path d="M13.5155 0H2.38509C1.78882 0 1.19255 0.3 0.695652 0.7C0.198758 1.2 0 1.8 0 2.5V28.5C0 29.2 0.198758 29.8 0.695652 30.3C1.09317 30.8 1.68944 31 2.38509 31H13.6149C14.2112 31 14.8075 30.7 15.3043 30.3C15.7019 29.8 16 29.2 16 28.5V2.5C16 1.8 15.8012 1.2 15.3043 0.7C14.8075 0.3 14.2112 0 13.5155 0ZM11.1304 1L10.8323 2.5H5.06832L4.77019 1H11.1304ZM15.0062 28.5C15.0062 28.9 14.9068 29.3 14.6087 29.6C14.3106 29.9 14.0124 30 13.6149 30H2.38509C1.98758 30 1.68944 29.8 1.3913 29.6C1.09317 29.3 0.993789 28.9 0.993789 28.5V2.5C0.993789 2.1 1.09317 1.7 1.3913 1.4C1.68944 1.1 1.98758 1 2.38509 1H3.87578L4.27329 3.1C4.27329 3.2 4.37267 3.3 4.47205 3.4C4.47205 3.5 4.57143 3.5 4.67081 3.5H11.2298C11.3292 3.5 11.4286 3.5 11.528 3.4C11.6273 3.3 11.6273 3.2 11.7267 3.1L12.1242 1H13.6149C14.0124 1 14.3106 1.2 14.6087 1.4C14.9068 1.7 15.0062 2.1 15.0062 2.5V28.5Z" fill="#8E81AC"/>
</svg>

<svg viewBox="0 0 16 31" fill="none" xmlns="http://www.w3.org/2000/svg"><path d="M13.515 0H2.385C1.79 0 1.193.3.695.7.2 1.2 0 1.8 0 2.5v26c0 .7.199 1.3.696 1.8.397.5.993.7 1.69.7h11.229c.596 0 1.192-.3 1.69-.7.397-.5.695-1.1.695-1.8v-26c0-.7-.199-1.3-.696-1.8-.497-.4-1.093-.7-1.789-.7zM11.13 1l-.298 1.5H5.068L4.77 1h6.36zm3.876 27.5c0 .4-.1.8-.397 1.1-.298.3-.597.4-.994.4H2.385c-.397 0-.696-.2-.994-.4-.298-.3-.397-.7-.397-1.1v-26c0-.4.1-.8.397-1.1.298-.3.597-.4.994-.4h1.49l.398 2.1c0 .1.1.2.2.3 0 .1.098.1.198.1h6.559c.1 0 .199 0 .298-.1.1-.1.1-.2.199-.3l.397-2.1h1.49c.398 0 .697.2.995.4.298.3.397.7.397 1.1v26z" fill="#8E81AC"/></svg>
